packages/components/Atoms/Icon/assets/img/rpl_icon_csv.svg

<svg width="20" height="20" viewBox="0 0 20 20" overflow="visible" xmlns="http://www.w3.org/2000/svg">
  <path fill-rule="evenodd" clip-rule="evenodd" d="M10 5V2.824L12.176 5H10ZM10.003 0H1C0.447 0 0 0.447 0 1V19C0 19.553 0.447 20 1 20H14C14.553 20 15 19.553 15 19V16H13V18H2V2H8V6C8 6.553 8.447 7 9 7H13V9H15V4.997L10.003 0Z"
    fill="inherit" />
  <path fill-rule="evenodd" clip-rule="evenodd" d="M9.6104 15.0546C9.0294 15.0546 8.5884 14.8586 8.2234 14.4936C7.6984 13.9686 7.7194 13.2686 7.7194 12.5196C7.7194 11.7696 7.6984 11.0696 8.2234 10.5436C8.5884 10.1796 9.0294 9.98459 9.6104 9.98459C10.5554 9.98459 11.3194 10.5086 11.5014 11.6086H10.2554C10.1774 11.3286 10.0234 11.0756 9.6174 11.0756C9.3934 11.0756 9.2254 11.1676 9.1334 11.2866C9.0224 11.4336 8.9454 11.6086 8.9454 12.5196C8.9454 13.4296 9.0224 13.6046 9.1334 13.7516C9.2254 13.8706 9.3934 13.9616 9.6174 13.9616C10.0234 13.9616 10.1774 13.7096 10.2554 13.4296H11.5014C11.3194 14.5296 10.5554 15.0546 9.6104 15.0546Z"
    fill="inherit" />
  <path fill-rule="evenodd" clip-rule="evenodd" d="M13.7051 15.0546C12.9411 15.0546 12.3181 14.9146 11.8141 14.3966L12.5991 13.6126C12.8571 13.8706 13.3121 13.9616 13.7121 13.9616C14.1951 13.9616 14.4271 13.8006 14.4271 13.5136C14.4271 13.3946 14.3981 13.2966 14.3281 13.2196C14.2661 13.1566 14.1601 13.1076 13.9991 13.0866L13.3961 13.0026C12.9561 12.9396 12.6191 12.7926 12.3951 12.5616C12.1641 12.3236 12.0521 11.9876 12.0521 11.5596C12.0521 10.6496 12.7381 9.98459 13.8731 9.98459C14.5881 9.98459 15.1271 10.1526 15.5541 10.5786L14.7831 11.3496C14.4691 11.0336 14.0561 11.0556 13.8381 11.0556C13.4111 11.0556 13.2351 11.3006 13.2351 11.5176C13.2351 11.5806 13.2571 11.6716 13.3341 11.7486C13.3961 11.8116 13.5021 11.8746 13.6771 11.8966L14.2791 11.9806C14.7271 12.0426 15.0501 12.1836 15.2601 12.3936C15.5261 12.6526 15.6311 13.0236 15.6311 13.4866C15.6311 14.5006 14.7561 15.0546 13.7051 15.0546Z"
    fill="inherit" />
  <path fill-rule="evenodd" clip-rule="evenodd" d="M18.3467 15.0127H17.4367L15.7897 10.0267H17.0577L17.8987 12.8137L18.7247 10.0267H19.9997L18.3467 15.0127Z"
    fill="inherit" />
</svg>

<svg width="20" height="20" overflow="visible" xmlns="http://www.w3.org/2000/svg"><path fill-rule="evenodd" clip-rule="evenodd" d="M10 5V2.824L12.176 5H10zm.003-5H1a1 1 0 00-1 1v18a1 1 0 001 1h13a1 1 0 001-1v-3h-2v2H2V2h6v4a1 1 0 001 1h4v2h2V4.997L10.003 0z" fill="inherit"/><path fill-rule="evenodd" clip-rule="evenodd" d="M9.61 15.055c-.58 0-1.022-.196-1.387-.561-.525-.525-.504-1.225-.504-1.974 0-.75-.02-1.45.504-1.976.365-.364.806-.56 1.387-.56.945 0 1.71.525 1.891 1.625h-1.246c-.078-.28-.232-.533-.638-.533-.224 0-.392.092-.484.21-.11.148-.188.323-.188 1.234 0 .91.077 1.085.188 1.232.092.119.26.21.484.21.406 0 .56-.252.638-.532h1.246c-.182 1.1-.946 1.625-1.89 1.625zM13.705 15.055c-.764 0-1.387-.14-1.89-.658l.784-.784c.258.258.713.349 1.113.349.483 0 .715-.161.715-.448a.417.417 0 00-.099-.294c-.062-.063-.168-.112-.329-.133l-.603-.084c-.44-.063-.777-.21-1-.441-.232-.238-.344-.574-.344-1.002 0-.91.686-1.575 1.821-1.575.715 0 1.254.168 1.681.594l-.77.77c-.315-.315-.728-.293-.946-.293-.427 0-.603.245-.603.462a.33.33 0 00.1.23.563.563 0 00.342.149l.602.084c.448.062.771.203.981.413.266.259.371.63.371 1.093 0 1.014-.875 1.568-1.926 1.568zM18.347 15.013h-.91l-1.647-4.986h1.268l.84 2.787.827-2.787H20l-1.653 4.986z" fill="inherit"/></svg>
